X: 251
T: Mrs Hoggan's Strathspey
R: strathspey
Q: "Slow"
B: William Shepherd "2nd Collection" 1800 p.25 #1
F: http://imslp.org/wiki/File:PMLP73094-Shepherd_Collections_HMT.pdf
C: William Shepherd (17??-1812)
Z: 2012 John Chambers <jc:trillian.mit.edu>
M: C
L: 1/16
K: Em
F2 |\
TG3FE3F TG3A {c}B2.A.G | TF3DTA3F d3A {B}A2.G.F |\
TG3FE3F TG3A {c}B2.A.G | A2Bc BGAF G3EE3F |
TG3FE3F TG3A {c}B2.A.G | TF3DA3F d3A {B}A2.G.F |\
TG3EG3B TD3FA3F | TG3B {B}A2.G.F G2E2E2B2 ||
e3Be3f {a}g3fe2d | ~B3dA3F D3d {B}A2.G.F |\
e3Be3f {a}g3fe2d | A3Fd3F {F}E4 E3B |
e3Be3f {a}g3fe2d | B3dA3F D3Td {B}A2.G.F |\
E3B,E3G TF3ATG3B | D3F (AF).d.F {F}E4 E2 |]
